X:1
T:Title
%%score { ( 1 4 ) | ( 2 3 ) }
L:1/8
Q:1/4=100
M:4/4
K:Eb
V:1 treble nm="Grand Piano"
V:4 treble 
V:2 bass 
V:3 bass 
V:1
 G2 G>G GF[B,EG][B,FA] | [B,GB]2 [B,FA][B,EG] [DF]4 | [DF]2 [DF]>[DF] [DF][_D=E][=DF][_EG] | %3
w: W.~H.~Doane * * * * * *|||
 [FA]2 [EG][DF] E4 | [Ec]2 [Ec]>[Ec] B2 BB | A2 AA G2 GG | [CF]2 [CF]2 [CF][CA][B,CG][A,CF] | %7
w: ||||
[M:7/8] E2 D2 E3 |[M:1/4] EF |[M:4/4] GG [EGB]4 [B,EG]2 | [A,DF]2 [G,E]4 [G,B,E][G,B,E] | %11
w: ||||
 [B,DF][B,DF] [DFB]4 [B,DF]2 |[M:3/4] [B,FA]2 [B,EG]4 |[M:1/4] [GB][GB] |[M:4/4] cc c>c e2 c2 | %15
w: ||||
 [GB]2 G4 EF | z4 [DF]4 | E6 z2 |] %18
w: |||
V:2
 [E,B,E]2 [E,B,E]>[E,B,E] EDE,E, | E,2 D,E, [B,,B,]4 | %2
 [B,,B,]2 [B,,B,]>[B,,B,] [B,,B,]2 [B,,B,][B,,B,] | [B,,B,]2 [B,,B,][B,,A,] [E,G,]4 | %4
 [A,,A,]2 [A,,A,]>[C,A,] [E,G,E]2 [G,B,E][G,B,E] | [F,CE]2 [F,B,D][F,B,D] [E,B,E]2 [E,B,E][E,B,E] | %6
 [A,,A,]2 [A,,A,]2 [A,,A,][A,,F,]A,,A,, |[M:7/8] [B,,G,B,]2 [B,,A,B,]2 [E,G,B,]3 | %8
[M:1/4] [E,G,B,][E,A,B,] |[M:4/4] [E,B,E][E,B,E] E,4 E,2 | B,,2 E,4 E,E, | B,,B,, B,,4 B,,2 | %12
[M:3/4] E,2 E,4 |[M:1/4] [E,E][E,E] |[M:4/4][K:treble] [A,EA][A,EA] [A,EA]>[A,EA] [A,CA]2 [A,EA]2 | %15
 [E,E]2 [E,B,E]4 [G,B,][A,CE] | z4 B,2 z2 | [E,G,]6 z2 |] %18
V:3
 z4 [E,B,]2 z2 | x8 | x8 | x8 | x8 | x8 | x8 |[M:7/8] x7 |[M:1/4] x2 |[M:4/4] x8 | x8 | x8 | %12
[M:3/4] x6 |[M:1/4] x2 |[M:4/4][K:treble] x8 | x8 | [B,E]4 B,,4 | x8 |] %18
V:4
 x8 | x8 | x8 | x8 | x8 | x8 | x8 |[M:7/8] x7 |[M:1/4] x2 |[M:4/4] x8 | x8 | x8 |[M:3/4] x6 | %13
[M:1/4] x2 |[M:4/4] x8 | x8 | G4 z2 A,2 | x8 |] %18

